places/24/user-trash.svg

<?xml version="1.0" encoding="UTF-8" standalone="no"?>
<svg
   xmlns:dc="http://purl.org/dc/elements/1.1/"
   xmlns:cc="http://creativecommons.org/ns#"
   xmlns:rdf="http://www.w3.org/1999/02/22-rdf-syntax-ns#"
   xmlns:svg="http://www.w3.org/2000/svg"
   xmlns="http://www.w3.org/2000/svg"
   xmlns:xlink="http://www.w3.org/1999/xlink"
   id="svg3162"
   height="24"
   width="24"
   version="1.1">
  <defs
     id="defs3164">
    <linearGradient
       id="linearGradient3642">
      <stop
         id="stop3644"
         style="stop-color:#ffffff;stop-opacity:1"
         offset="0" />
      <stop
         id="stop3646"
         style="stop-color:#ffffff;stop-opacity:0.23529412"
         offset="0.09090912" />
      <stop
         id="stop3648"
         style="stop-color:#ffffff;stop-opacity:0.15686275"
         offset="0.89330584" />
      <stop
         id="stop3650"
         style="stop-color:#ffffff;stop-opacity:0.39215687"
         offset="1" />
    </linearGradient>
    <linearGradient
       id="linearGradient4633">
      <stop
         offset="0"
         style="stop-color:#8d909a;stop-opacity:1"
         id="stop4635" />
      <stop
         id="stop4639"
         style="stop-color:#c6c7ca;stop-opacity:1;"
         offset="0.64868498" />
      <stop
         offset="1"
         style="stop-color:#404040;stop-opacity:1"
         id="stop4637" />
    </linearGradient>
    <linearGradient
       id="linearGradient4611">
      <stop
         id="stop4613"
         offset="0"
         style="stop-color:#ffffff;stop-opacity:0.13875598" />
      <stop
         style="stop-color:#ffffff;stop-opacity:1"
         offset="0.39641187"
         id="stop4619" />
      <stop
         id="stop4615"
         offset="1"
         style="stop-color:#ffffff;stop-opacity:0;" />
    </linearGradient>
    <linearGradient
       id="linearGradient4555">
      <stop
         id="stop4557"
         offset="0"
         style="stop-color:#ffffff;stop-opacity:1;" />
      <stop
         id="stop4559"
         offset="1"
         style="stop-color:#ffffff;stop-opacity:0" />
    </linearGradient>
    <linearGradient
       id="linearGradient4238">
      <stop
         id="stop4240"
         style="stop-color:#8d909a;stop-opacity:1;"
         offset="0" />
      <stop
         offset="0.39999998"
         style="stop-color:#e5e5e5;stop-opacity:1;"
         id="stop3792" />
      <stop
         id="stop4242"
         style="stop-color:#8d909a;stop-opacity:1;"
         offset="1" />
    </linearGradient>
    <linearGradient
       y2="26.410894"
       x2="32.427807"
       y1="26.410894"
       x1="10.572186"
       spreadMethod="reflect"
       gradientTransform="matrix(0.5948126,0,0,0.69469034,-1.2884692,-5.4005919)"
       gradientUnits="userSpaceOnUse"
       id="linearGradient4746"
       xlink:href="#linearGradient4238" />
    <linearGradient
       id="linearGradient3205">
      <stop
         id="stop3207"
         style="stop-color:#000000;stop-opacity:1"
         offset="0" />
      <stop
         id="stop3209"
         style="stop-color:#000000;stop-opacity:0"
         offset="1" />
    </linearGradient>
    <linearGradient
       id="linearGradient5060">
      <stop
         id="stop5062"
         style="stop-color:#000000;stop-opacity:1"
         offset="0" />
      <stop
         id="stop5064"
         style="stop-color:#000000;stop-opacity:0"
         offset="1" />
    </linearGradient>
    <radialGradient
       r="47.38271"
       fy="108.02493"
       fx="62.71241"
       cy="108.02493"
       cx="62.71241"
       gradientTransform="matrix(0.1793903,0,0,0.07386653,0.2500001,12.520952)"
       gradientUnits="userSpaceOnUse"
       id="radialGradient3172"
       xlink:href="#linearGradient5060" />
    <linearGradient
       y2="43"
       x2="24"
       y1="13.506023"
       x1="24"
       gradientTransform="matrix(0.33333337,0.16129118,0,0.43780917,2,-0.1652762)"
       gradientUnits="userSpaceOnUse"
       id="linearGradient4516"
       xlink:href="#linearGradient3205" />
    <linearGradient
       y2="43"
       x2="24"
       y1="13.506023"
       x1="24"
       gradientTransform="matrix(0.33333342,0.16129118,0,0.43780918,3.999997,-0.0571429)"
       gradientUnits="userSpaceOnUse"
       id="linearGradient4518"
       xlink:href="#linearGradient3205" />
    <linearGradient
       y2="45"
       x2="24"
       y1="15.502284"
       x1="24"
       gradientTransform="matrix(0.33333342,0.02029539,0,0.4407191,2.666665,1.7038753)"
       gradientUnits="userSpaceOnUse"
       id="linearGradient4520"
       xlink:href="#linearGradient3205" />
    <linearGradient
       y2="45"
       x2="24"
       y1="15.502284"
       x1="24"
       gradientTransform="matrix(0.33333342,0.02029539,0,0.4407191,3.333332,1.7038753)"
       gradientUnits="userSpaceOnUse"
       id="linearGradient4522"
       xlink:href="#linearGradient3205" />
    <linearGradient
       y2="40.040134"
       x2="23.500021"
       y1="19.153051"
       x1="23.500021"
       gradientTransform="matrix(0.49817653,0,0,0.80862302,-0.707159,-10.487599)"
       gradientUnits="userSpaceOnUse"
       id="linearGradient4528"
       xlink:href="#linearGradient3642" />
    <linearGradient
       gradientTransform="translate(-1,1)"
       y2="4.6875"
       x2="22.313522"
       y1="5.9375"
       x1="5.4365268"
       gradientUnits="userSpaceOnUse"
       id="linearGradient4530"
       xlink:href="#linearGradient4633" />
    <linearGradient
       gradientTransform="matrix(1.0274651,0,0,0.95522389,-1.2787021,0.29944026)"
       gradientUnits="userSpaceOnUse"
       y2="2.25"
       x2="12.5"
       y1="6.5018396"
       x1="12.427539"
       id="linearGradient4561"
       xlink:href="#linearGradient4555" />
    <linearGradient
       gradientTransform="translate(-1,0)"
       gradientUnits="userSpaceOnUse"
       y2="7.9067039"
       x2="15.032932"
       y1="8"
       x1="7.5415921"
       id="linearGradient4617"
       xlink:href="#linearGradient4611" />
  </defs>
  <metadata
     id="metadata3167">
    <rdf:RDF>
      <cc:Work
         rdf:about="">
        <dc:format>image/svg+xml</dc:format>
        <dc:type
           rdf:resource="http://purl.org/dc/dcmitype/StillImage" />
        <dc:title></dc:title>
      </cc:Work>
    </rdf:RDF>
  </metadata>
  <path
     d="M 20,20.500385 C 19.999481,22.433232 16.194054,24 11.5,24 6.8059461,24 3.0005181,22.433232 3.0000001,20.500385 2.9994821,18.567237 6.8052141,17 11.5,17 c 4.694786,0 8.500517,1.567237 8.5,3.500385 z"
     id="path12941"
     style="display:inline;overflow:visible;visibility:visible;fill:url(#radialGradient3172);fill-opacity:1;fill-rule:evenodd;stroke:none;stroke-width:1.05496335;marker:none" />
  <path
     style="display:inline;overflow:visible;visibility:visible;fill:url(#linearGradient4746);fill-opacity:1;fill-rule:nonzero;stroke:none;stroke-width:1.01884639;marker:none"
     id="path4744"
     d="M 5,7.2024949 5,19.750995 c 0,0.223544 0.2936466,0.812196 1.340625,1.331042 C 7.3876033,21.600884 9.0790515,22 11.5,22 13.920949,22 15.612397,21.600884 16.659375,21.082037 17.706354,20.563191 18,19.974539 18,19.750995 L 18,7.2024949 Z" />
  <g
     transform="translate(-24,8)"
     style="display:inline"
     id="layer2" />
  <path
     id="rect4457"
     d="m 4.5004868,4.5 0,15 c 0,1.656854 2.8578643,3 7.0000002,3 4.142135,0 6.999513,-1.343146 6.999513,-3 l 0,-15 z"
     style="color:#000000;clip-rule:nonzero;display:inline;overflow:visible;visibility:visible;opacity:0.5;isolation:auto;mix-blend-mode:normal;color-interpolation:sRGB;color-interpolation-filters:linearRGB;solid-color:#000000;solid-opacity:1;fill:none;fill-opacity:1;fill-rule:nonzero;stroke:#161b28;stroke-width:1;stroke-linecap:butt;stroke-linejoin:miter;stroke-miterlimit:4;stroke-dasharray:none;stroke-dashoffset:0;stroke-opacity:1;marker:none;color-rendering:auto;image-rendering:auto;shape-rendering:auto;text-rendering:auto;enable-background:accumulate" />
  <path
     style="display:inline;overflow:visible;visibility:visible;opacity:0.15;fill:url(#linearGradient4516);fill-opacity:1;fill-rule:nonzero;stroke:none;stroke-width:0.99992186;marker:none;enable-background:accumulate"
     id="path4508"
     d="M 6.5,7.9252155 C 6.777,8.0592486 7,8.4600466 7,8.8238661 L 7,20.423172 C 7,20.786992 6.777,20.971983 6.5,20.83795 6.223,20.703916 6,20.303117 6,19.939298 L 6,8.3399924 C 6,7.9761729 6.223,7.7911823 6.5,7.9252155 Z" />
  <path
     style="display:inline;overflow:visible;visibility:visible;opacity:0.15;fill:url(#linearGradient4518);fill-opacity:1;fill-rule:nonzero;stroke:none;stroke-width:0.99992186;marker:none;enable-background:accumulate"
     id="path4510"
     d="M 15.499999,7.9252154 C 15.222999,8.0592485 15,8.4600466 15,8.8238659 l 0,11.5993061 c 0,0.363819 0.222999,0.548812 0.499999,0.414777 C 15.776999,20.703916 16,20.303117 16,19.939298 L 16,8.3399923 C 16,7.9761728 15.776999,7.7911822 15.499999,7.9252154 Z" />
  <path
     style="display:inline;overflow:visible;visibility:visible;opacity:0.3;fill:url(#linearGradient4522);fill-opacity:1;fill-rule:nonzero;stroke:none;stroke-width:0.99992186;marker:none;enable-background:accumulate"
     id="path4514"
     d="M 12.5,8.9537315 C 12.222999,8.970598 12,9.2790156 12,9.6452532 l 0,11.6764028 c 0,0.366237 0.222999,0.647501 0.5,0.630634 0.277,-0.01686 0.5,-0.325284 0.5,-0.691521 L 13,9.584367 C 13,9.2181295 12.777,8.9368661 12.5,8.9537315 Z" />
  <path
     style="display:inline;overflow:visible;visibility:visible;opacity:1;fill:none;stroke:url(#linearGradient4528);stroke-width:0.99999964;stroke-linecap:round;stroke-linejoin:round;stroke-miterlimit:4;stroke-dasharray:none;stroke-dashoffset:0;stroke-opacity:1;marker:none"
     id="path4526"
     d="m 5.5,5.5 0,14 c 0,0 0.999985,1.877358 5.999995,1.894953 C 16.500005,21.412548 17.5,19.5 17.5,19.5 l 0,-14 z" />
  <path
     id="path4563"
     d="m 4.4358834,8.7371038 c 2.4081112,0.9918491 4.2849997,1.3299372 6.6193696,1.2525391 2.39933,-0.07955 5.387107,-0.06771 7.522766,-1.5177042"
     style="opacity:0.1;fill:none;fill-rule:evenodd;stroke:#000000;stroke-width:1px;stroke-linecap:round;stroke-linejoin:miter;stroke-opacity:1" />
  <path
     style="display:inline;overflow:visible;visibility:visible;opacity:0.3;fill:url(#linearGradient4520);fill-opacity:1;fill-rule:nonzero;stroke:none;stroke-width:0.99992186;marker:none;enable-background:accumulate"
     id="path4512"
     d="M 9.5,8.9537315 C 9.777,8.9705985 10,9.2790156 10,9.6452532 L 10,21.321656 C 10,21.687893 9.777,21.969157 9.5,21.95229 9.223,21.93543 9,21.627006 9,21.260769 L 9,9.584367 C 9,9.2181295 9.223,8.9368661 9.5,8.9537315 Z" />
  <path
     style="opacity:1;fill:url(#linearGradient4530);fill-opacity:1;stroke:#000000;stroke-width:0.99999994;stroke-linecap:round;stroke-linejoin:round;stroke-miterlimit:4;stroke-dasharray:none;stroke-opacity:0.30196078"
     d="M 11.500487,1.5 C 7.2791177,1.50214 4.1045132,2.779616 3.5014633,4.5 l -0.00195,2.375 C 4.1026673,8.5956858 7.2783759,9.498257 11.500487,9.5 15.721856,9.4979 18.895973,8.5328841 19.499023,6.8125 L 19.501023,4.5 C 18.89782,2.7793142 15.722598,1.501743 11.500487,1.5 Z"
     id="path4504" />
  <ellipse
     ry="2.6875"
     rx="7.5"
     cy="4.625"
     cx="11.5"
     id="path4506"
     style="opacity:0.3;fill:#ffffff;fill-opacity:1;stroke:none;stroke-width:1;stroke-linecap:round;stroke-linejoin:round;stroke-miterlimit:4;stroke-dasharray:none;stroke-opacity:1" />
  <path
     style="opacity:0.5;fill:#ffffff;fill-opacity:1;fill-rule:evenodd;stroke:none;stroke-width:1px;stroke-linecap:butt;stroke-linejoin:miter;stroke-opacity:1"
     d="m 16.1875,3.3012605 -4.5,1.3125 -1.3125,-2 c 2.189235,-0.2937492 4.443022,-0.00246 5.8125,0.6875 z"
     id="path4643" />
  <path
     style="color:#000000;display:inline;overflow:visible;visibility:visible;opacity:0.7;fill:#ffffff;fill-opacity:0.23923448;stroke:url(#linearGradient4561);stroke-width:0.99999982;stroke-linecap:round;stroke-linejoin:round;stroke-miterlimit:4;stroke-dasharray:none;stroke-dashoffset:0;stroke-opacity:1;marker:none;enable-background:accumulate"
     id="path4564-1-6"
     d="m 18.500001,4.5979477 c 0,-1.0551113 -2.963216,-1.9104479 -6.93539,-1.9104479 -3.9721724,0 -7.1104243,1.4538262 -7.0638218,2.0895523 0.064217,0.8760066 3.0274328,1.9104478 6.9996058,1.9104478 3.972174,0 6.999606,-1.0344412 6.999606,-2.0895522 z" />
  <path
     id="rect4605-2-4-3"
     d="m 9,1.4905768 c -0.277,0 -0.5,0.223 -0.5,0.5 l 0,2 c 0,0.277 0.223,0.5 0.5,0.5 l 1.5,0 0,-0.5 c 0,-0.554 0.446,-1 1,-1 0.554,0 1,0.446 1,1 l 0,0.5 1.5,0 c 0.277,0 0.5,-0.223 0.5,-0.5 l 0,-2 c 0,-0.277 -0.223,-0.5 -0.5,-0.5 z"
     style="color:#000000;display:inline;overflow:visible;visibility:visible;fill:#dcdcdd;fill-opacity:1;fill-rule:nonzero;stroke:#000000;stroke-width:1.01884639;stroke-opacity:0.30196078;marker:none;enable-background:accumulate" />
  <path
     id="rect4608"
     d="M 5.797335,6.4665291 C 6.1980013,6.6057765 7.7755477,7.0935093 10.004791,7.2341206 11.32393,7.3173264 13.620053,7.0616289 14.625,6.9968592 L 14.3125,8.875 C 13.45009,9.0604613 11.655345,9.151399 9.93974,9.0306715 8.2452869,8.9114325 6.4070627,8.3616812 5.8415291,8.2013641 Z"
     style="opacity:0.8;fill:url(#linearGradient4617);fill-opacity:1;stroke:none;stroke-width:1;stroke-linecap:round;stroke-linejoin:round;stroke-miterlimit:4;stroke-dasharray:none;stroke-opacity:0" />
  <path
     id="path4641"
     d="m 7,6 4.5,-1.3125 1.3125,2 C 10.623265,6.9812492 8.3694777,6.6899601 7,6 Z"
     style="opacity:0.5;fill:#ffffff;fill-opacity:1;fill-rule:evenodd;stroke:none;stroke-width:1px;stroke-linecap:butt;stroke-linejoin:miter;stroke-opacity:1" />
</svg>

<svg xmlns="http://www.w3.org/2000/svg" xmlns:xlink="http://www.w3.org/1999/xlink" viewBox="0 0 24 24"><defs><linearGradient id="d"><stop offset="0" stop-color="#fff"/><stop offset=".091" stop-color="#fff" stop-opacity=".235"/><stop offset=".893" stop-color="#fff" stop-opacity=".157"/><stop offset="1" stop-color="#fff" stop-opacity=".392"/></linearGradient><linearGradient id="e"><stop offset="0" stop-color="#8d909a"/><stop offset=".649" stop-color="#c6c7ca"/><stop offset="1" stop-color="#404040"/></linearGradient><linearGradient id="g"><stop offset="0" stop-color="#fff" stop-opacity=".139"/><stop offset=".396" stop-color="#fff"/><stop offset="1" stop-color="#fff" stop-opacity="0"/></linearGradient><linearGradient id="f"><stop offset="0" stop-color="#fff"/><stop offset="1" stop-color="#fff" stop-opacity="0"/></linearGradient><linearGradient id="a"><stop offset="0" stop-color="#8d909a"/><stop offset=".4" stop-color="#e5e5e5"/><stop offset="1" stop-color="#8d909a"/></linearGradient><linearGradient y2="26.411" x2="32.428" y1="26.411" x1="10.572" spreadMethod="reflect" gradientTransform="matrix(.5948 0 0 .6947 -1.288 -5.4)" gradientUnits="userSpaceOnUse" id="i" xlink:href="#a"/><linearGradient id="c"><stop offset="0"/><stop offset="1" stop-opacity="0"/></linearGradient><linearGradient id="b"><stop offset="0"/><stop offset="1" stop-opacity="0"/></linearGradient><radialGradient r="47.383" fy="108.025" fx="62.712" cy="108.025" cx="62.712" gradientTransform="matrix(.1794 0 0 .07387 .25 12.52)" gradientUnits="userSpaceOnUse" id="h" xlink:href="#b"/><linearGradient y2="43" x2="24" y1="13.506" x1="24" gradientTransform="matrix(.33333 .1613 0 .4378 2 -.165)" gradientUnits="userSpaceOnUse" id="j" xlink:href="#c"/><linearGradient y2="43" x2="24" y1="13.506" x1="24" gradientTransform="matrix(.33333 .1613 0 .4378 4 -.057)" gradientUnits="userSpaceOnUse" id="k" xlink:href="#c"/><linearGradient y2="45" x2="24" y1="15.502" x1="24" gradientTransform="matrix(.33333 .0203 0 .44072 2.667 1.704)" gradientUnits="userSpaceOnUse" id="n" xlink:href="#c"/><linearGradient y2="45" x2="24" y1="15.502" x1="24" gradientTransform="matrix(.33333 .0203 0 .44072 3.333 1.704)" gradientUnits="userSpaceOnUse" id="l" xlink:href="#c"/><linearGradient y2="40.04" x2="23.5" y1="19.153" x1="23.5" gradientTransform="matrix(.49818 0 0 .80862 -.707 -10.488)" gradientUnits="userSpaceOnUse" id="m" xlink:href="#d"/><linearGradient gradientTransform="translate(-1 1)" y2="4.688" x2="22.314" y1="5.938" x1="5.437" gradientUnits="userSpaceOnUse" id="o" xlink:href="#e"/><linearGradient gradientTransform="matrix(1.02747 0 0 .95522 -1.28 .3)" gradientUnits="userSpaceOnUse" y2="2.25" x2="12.5" y1="6.502" x1="12.428" id="p" xlink:href="#f"/><linearGradient gradientTransform="translate(-1)" gradientUnits="userSpaceOnUse" y2="7.907" x2="15.033" y1="8" x1="7.542" id="q" xlink:href="#g"/></defs><path d="M20 20.5c0 1.933-3.806 3.5-8.5 3.5S3 22.433 3 20.5 6.805 17 11.5 17s8.5 1.567 8.5 3.5z" overflow="visible" fill="url(#h)" fill-rule="evenodd"/><path d="M5 7.202v12.55c0 .223.294.81 1.34 1.33 1.048.52 2.74.918 5.16.918s4.112-.4 5.16-.918c1.046-.52 1.34-1.107 1.34-1.33V7.2z" overflow="visible" fill="url(#i)"/><path d="M4.5 4.5v15c0 1.657 2.858 3 7 3 4.143 0 7-1.343 7-3v-15z" style="isolation:auto;mix-blend-mode:normal" color="#000" overflow="visible" opacity=".5" fill="none" stroke="#161b28"/><path d="M6.5 7.925c.277.134.5.535.5.9v11.598c0 .364-.223.55-.5.415-.277-.134-.5-.535-.5-.9V8.34c0-.364.223-.55.5-.415z" overflow="visible" opacity=".15" fill="url(#j)"/><path d="M15.5 7.925c-.277.134-.5.535-.5.9v11.598c0 .364.223.55.5.415.277-.134.5-.535.5-.9V8.34c0-.364-.223-.55-.5-.415z" overflow="visible" opacity=".15" fill="url(#k)"/><path d="M12.5 8.954c-.277.017-.5.325-.5.69v11.678c0 .366.223.647.5.63.277-.017.5-.325.5-.69V9.582c0-.365-.223-.646-.5-.63z" overflow="visible" opacity=".3" fill="url(#l)"/><path d="M5.5 5.5v14s1 1.877 6 1.895c5 .018 6-1.895 6-1.895v-14z" overflow="visible" fill="none" stroke="url(#m)" stroke-linecap="round" stroke-linejoin="round"/><path d="M4.436 8.737c2.408.992 4.285 1.33 6.62 1.253 2.4-.08 5.386-.068 7.522-1.518" opacity=".1" fill="none" stroke="#000" stroke-linecap="round"/><path d="M9.5 8.954c.277.017.5.325.5.69v11.678c0 .366-.223.647-.5.63-.277-.017-.5-.325-.5-.69V9.582c0-.365.223-.646.5-.63z" overflow="visible" opacity=".3" fill="url(#n)"/><path d="M11.5 1.5c-4.22.002-7.395 1.28-8 3v2.375c.603 1.72 3.778 2.623 8 2.625 4.222-.002 7.396-.967 8-2.688V4.5c-.602-1.72-3.777-2.998-8-3z" fill="url(#o)" stroke="#000" stroke-linecap="round" stroke-linejoin="round" stroke-opacity=".302"/><ellipse ry="2.688" rx="7.5" cy="4.625" cx="11.5" opacity=".3" fill="#fff"/><path d="M16.188 3.3l-4.5 1.314-1.313-2c2.19-.294 4.443-.003 5.813.687z" opacity=".5" fill="#fff" fill-rule="evenodd"/><path d="M18.5 4.598c0-1.055-2.963-1.91-6.935-1.91-3.973 0-7.11 1.453-7.064 2.09.067.875 3.03 1.91 7 1.91 3.975 0 7-1.035 7-2.09z" color="#000" overflow="visible" opacity=".7" fill="#fff" fill-opacity=".239" stroke="url(#p)" stroke-linecap="round" stroke-linejoin="round"/><path d="M9 1.49a.5.5 0 0 0-.5.5v2a.5.5 0 0 0 .5.5h1.5v-.5c0-.553.446-1 1-1s1 .447 1 1v.5H14a.5.5 0 0 0 .5-.5v-2a.5.5 0 0 0-.5-.5z" color="#000" overflow="visible" fill="#dcdcdd" stroke="#000" stroke-width="1.019" stroke-opacity=".302"/><path d="M5.797 6.467c.4.14 1.98.627 4.208.767 1.32.083 3.615-.172 4.62-.237l-.313 1.878c-.862.185-2.657.276-4.372.156-1.695-.12-3.533-.666-4.098-.83z" opacity=".8" fill="url(#q)"/><path d="M7 6l4.5-1.313 1.313 2C10.623 6.98 8.37 6.69 7 6z" opacity=".5" fill="#fff" fill-rule="evenodd"/></svg>
